Paper/scalable/status/dialog-question-symbolic.svg

<svg viewBox="0 0 16 16"><path d="m7.3.3-7 7s-.6.7 0 1.4l7 7s .7.6 1.4 0l7-7s .6-.7 0-1.4l-7-7s-.7-.6-1.4 0zm .7 3.7s2 0 2 2c0 0 0 2-2 2v1h-1v-2h1s1 0 1-1c0 0 0-1-1-1s-1 1-1 1h-1s0-2 2-2zm-.5 5.7s.8 0 .8.8-.8.8-.8.8-.8 0-.8-.8.8-.8.8-.8z"/></svg>

<?xml version="1.0" encoding="UTF-8" standalone="no"?>
<svg
   xmlns:dc="http://purl.org/dc/elements/1.1/"
   xmlns:cc="http://creativecommons.org/ns#"
   xmlns:rdf="http://www.w3.org/1999/02/22-rdf-syntax-ns#"
   xmlns:svg="http://www.w3.org/2000/svg"
   xmlns="http://www.w3.org/2000/svg"
   xmlns:sodipodi="http://sodipodi.sourceforge.net/DTD/sodipodi-0.dtd"
   xmlns:inkscape="http://www.inkscape.org/namespaces/inkscape"
   height="16"
   width="16"
   id="svg2"
   version="1.1"
   inkscape:version="0.91 r13725"
   sodipodi:docname="dialog-question-symbolic.svg">
  <metadata
     id="metadata10">
    <rdf:RDF>
      <cc:Work
         rdf:about="">
        <dc:format>image/svg+xml</dc:format>
        <dc:type
           rdf:resource="http://purl.org/dc/dcmitype/StillImage" />
        <dc:title></dc:title>
      </cc:Work>
    </rdf:RDF>
  </metadata>
  <defs
     id="defs8" />
  <sodipodi:namedview
     pagecolor="#ffffff"
     bordercolor="#666666"
     borderopacity="1"
     objecttolerance="10"
     gridtolerance="10"
     guidetolerance="10"
     inkscape:pageopacity="0"
     inkscape:pageshadow="2"
     inkscape:window-width="640"
     inkscape:window-height="480"
     id="namedview6"
     showgrid="true"
     inkscape:zoom="26.339728"
     inkscape:cx="-2.9918049"
     inkscape:cy="10.571381"
     inkscape:current-layer="svg2">
    <inkscape:grid
       type="xygrid"
       id="grid7182" />
  </sodipodi:namedview>
  <path
     d="m 7.3,0.3 -7,7 c 0,0 -0.6,0.7 0,1.4 l 7,7 c 0,0 0.7,0.6 1.4,0 l 7,-7 c 0,0 0.6,-0.7 0,-1.4 l -7,-7 c 0,0 -0.7,-0.6 -1.4,0 z M 8,4 c 0,0 2,0 2,2 0,0 0,2 -2,2 L 8,9 7,9 7,7 8,7 C 8,7 9,7 9,6 9,6 9,5 8,5 7,5 7,6 7,6 L 6,6 C 6,6 6,4 8,4 Z M 7.5,9.7 c 0,0 0.8,0 0.8,0.8 0,0.8 -0.8,0.8 -0.8,0.8 0,0 -0.8,0 -0.8,-0.8 0,-0.8 0.8,-0.8 0.8,-0.8 z"
     id="path4"
     inkscape:connector-curvature="0"
     sodipodi:nodetypes="cccccccccccccccccccccczczc" />
</svg>
